!!!OTL: SCHAU WOL TRITT DER HANSLEIN DAHER
!!!ARE: Europa, Mitteleuropa, Deutschland
!!!SCT: E0944
!!!YEM: Copyright 1995, estate of Helmut Schaffrath.
**kern
*ICvox
*Ivox
*M3/4
*k[b-]
*F:
=1
{2a
4a
=2
2f
4f
=3
4.g
8g
4g
=4
2f}
{4f
=5
2a
4a
=6
2f
4f
=7
2g
4g
=8
2f}
{4b-
=9
4.a
8g
4f
=10
4.g
8f
4e
=11
4f
4f
4g
=12
2.f}
==
!!!AGN: Tanz - Lied, Reigen
!!!ONB: ESAC (Essen Associative Code) Database: ERK2
!!!AMT: simple triple
!!!AIN: vox
!!!EED: Helmut Schaffrath
!!!EEV: 1.0
*-
